X:105
T:Land-O-Lakes Jig
R:jig
C:Bruce Osborne  --  Mar. 1991
Z:abc by bosborne@kos.net
M:6/8
L:1/8
K:Bb
D/E/|F2 F DFD|B,DF BdB|AcA FGA|BDG FDE|\
F2 F DFD|B,DF BdB|AcA FGA|BFD B,2:|
|:F|BdB FBF|EBE DFB|gff dcB|ABc cdc|\
BdB FBF|EBE DFB|gff dcB|ABc B2:|
